X:178
T:Sixpenny Money   
B:CRE1.039 (Airgead Realach)
F:file ID: cre.1/178sixp_m
S:Willie Clancy
M:6/8
Q:160
R:jig
K:D
A/G/|:FAA fAA|BGE FGE|D3 AFA|dfd fed|
A2A AFA|BGE FGE|D3 AFA|dfd e2d:|
fdf g3|afd fed|fdf g3|afd ecA|
fdf g3|afd fed|A2A DFA|dfd e2d:|

%%%

